X: 1682
T: Bath Road Hornpipe
M:2/4
L:1/16
B:O'Neill's 1682
N:"collected by J.O'Neill"
Z:At the start of the repeat there is an extra half beat
K:G
   GABc d2ef | g2dc (3BdBG2 | FGAB cedc | B2A-G (3FAFD2 |
|  GABc d2ef | g2dc (3BdBG2 | FGAB cedc | BGAFG2 :|
|: d2dd d2d2 | defg    agdB | c2cc c2c2 | cBAG FAFD |
|  GABc d2ef | g2dc (3BdBG2 | FGAB cedc | BGAF G2 :|


